suite-common/icons/assets/icons/addressContinues.svg

<svg xmlns="http://www.w3.org/2000/svg" viewBox="0 0 40 16">
  <path fill-rule="evenodd" d="M.507.151c-.836.479-.571 1.724.39 1.832C1.949 2.102 2.416.7 1.502.164 1.155-.039.845-.043.507.151m0 3c-.836.479-.571 1.724.39 1.832 1.052.119 1.519-1.283.605-1.819-.347-.203-.657-.207-.995-.013m0 3c-.836.479-.571 1.724.39 1.832 1.052.119 1.519-1.283.605-1.819-.347-.203-.657-.207-.995-.013m35.183-.078c-.271.078-.605.46-.66.755-.079.42.074.69.825 1.455l.704.717-17.896.001-17.896.001-.26.149c-.683.392-.653 1.406.052 1.741.208.099 1.749.108 18.112.108h17.884l-.739.756c-.789.807-.88.98-.787 1.478.057.306.431.68.737.737.57.107.605.082 2.446-1.759 2.368-2.368 2.361-2.057.1-4.33-1.859-1.87-2.023-1.983-2.622-1.809"/>
</svg>

<svg xmlns="http://www.w3.org/2000/svg" viewBox="0 0 40 16"><path d="M0.507 0.151 C -0.329 0.630,-0.064 1.875,0.897 1.983 C 1.949 2.102,2.416 0.700,1.502 0.164 C 1.155 -0.039,0.845 -0.043,0.507 0.151 M0.507 3.151 C -0.329 3.630,-0.064 4.875,0.897 4.983 C 1.949 5.102,2.416 3.700,1.502 3.164 C 1.155 2.961,0.845 2.957,0.507 3.151 M0.507 6.151 C -0.329 6.630,-0.064 7.875,0.897 7.983 C 1.949 8.102,2.416 6.700,1.502 6.164 C 1.155 5.961,0.845 5.957,0.507 6.151 M35.690 6.073 C 35.419 6.151,35.085 6.533,35.030 6.828 C 34.951 7.248,35.104 7.518,35.855 8.283 L 36.559 9.000 18.663 9.001 L 0.767 9.002 0.507 9.151 C -0.176 9.543,-0.146 10.557,0.559 10.892 C 0.767 10.991,2.308 11.000,18.671 11.000 L 36.555 11.000 35.816 11.756 C 35.027 12.563,34.936 12.736,35.029 13.234 C 35.086 13.540,35.460 13.914,35.766 13.971 C 36.336 14.078,36.371 14.053,38.212 12.212 C 40.580 9.844,40.573 10.155,38.312 7.882 C 36.453 6.012,36.289 5.899,35.690 6.073 " stroke="none" fill-rule="evenodd" fill="black"></path></svg>
